storage/app/icons/phosphoricons/regular/football-helmet.svg

<svg xmlns="http://www.w3.org/2000/svg" fill="currentColor" viewBox="0 0 256 256"><path d="M96 164a12 12 0 1 1-12-12 12 12 0 0 1 12 12m136 12v32a16 16 0 0 1-16 16h-36a16.1 16.1 0 0 1-15.35-11.47L153.84 176h-21.93l3.56 12a5 5 0 0 1 .15.54A16 16 0 0 1 120 208H72.14a8 8 0 0 1-4.52-1.4A100 100 0 0 1 24 124c0-54.36 44.24-99.2 98.58-100A100 100 0 0 1 224 124v4a8 8 0 0 1-8 8h-57.29l7.09 24H216a16 16 0 0 1 16 16m-112 16-15.45-52a5 5 0 0 1-.15-.54A16 16 0 0 1 120 120h87.91a84 84 0 0 0-85.11-80C77.16 40.64 40 78.31 40 124a84 84 0 0 0 34.67 68Zm29.13-32L142 136h-22l7.14 24ZM216 176h-45.48l9.48 32h36Z"/></svg>

<svg xmlns="http://www.w3.org/2000/svg" viewBox="0 0 256 256" fill="currentColor"><path d="M96,164a12,12,0,1,1-12-12A12,12,0,0,1,96,164Zm136,12v32a16,16,0,0,1-16,16H180a16.1,16.1,0,0,1-15.35-11.47L153.84,176H131.91l3.56,12a5.44,5.44,0,0,1,.15.54A16,16,0,0,1,120,208H72.14a8,8,0,0,1-4.52-1.4A100,100,0,0,1,24,124c0-54.36,44.24-99.2,98.58-100A100,100,0,0,1,224,124v4a8,8,0,0,1-8,8H158.71l7.09,24H216A16,16,0,0,1,232,176ZM120,192l-15.45-52a4.77,4.77,0,0,1-.15-.54A16,16,0,0,1,120,120h87.91A84,84,0,0,0,122.8,40C77.16,40.64,40,78.31,40,124a84,84,0,0,0,34.67,68Zm29.13-32L142,136H120l7.14,24ZM216,176H170.52L180,208h36Z"/></svg>
